Papirus-nordic/32x32/apps/kfoldersync.svg

<svg xmlns="http://www.w3.org/2000/svg" width="32" height="32" version="1">
 <path style="opacity:.2" d="m28 26.75055v-13.49477c0-0.69222-0.56175-1.32597-1.25-1.2495h-10l-2.25 0.00021h-10.25c-1.25 0-1.25 1.19747-1.25 1.19747v13.54654c0 0.69222 0.5575 1.2495 1.25 1.2495h22.5c0.6925 0 1.25-0.55728 1.25-1.2495z"/>
 <path style="fill:#6c9b9a" d="m3 23.75027v-16.75027c0-1 0-2 1-2h9c1 0 1 1 1 2.0001h12.814s1.1859 0.006 1.1859 1.2558v15.49452c0 0.69224-0.5575 1.24958-1.25 1.24958h-22.4995c-0.6925 0-1.25-0.55729-1.25-1.24958z"/>
 <path style="opacity:.2" d="m28 24.75055v-13.49477c0-0.69222-0.56175-1.32597-1.25-1.2495h-10l-2.25 0.00021h-10.25c-1.25 0-1.25 1.19747-1.25 1.19747v13.54654c0 0.69222 0.5575 1.2495 1.25 1.2495h22.5c0.6925 0 1.25-0.55728 1.25-1.2495z"/>
 <rect style="fill:#dcdcdc" width="21" height="10" x="5" y="9" rx="1.167" ry="1.25"/>
 <path style="fill:#82abaa" d="m28 25.75055v-13.49477c0-0.69222-0.56175-1.32597-1.25-1.2495h-10l-2.25 0.00021h-10.25c-1.25 0-1.25 1.19747-1.25 1.19747v13.54654c0 0.69222 0.5575 1.2495 1.25 1.2495h22.5c0.6925 0 1.25-0.55728 1.25-1.2495z"/>
 <path style="opacity:.1;fill:#ffffff" d="m4 5c-1 0-1 1-1 2v1c0-1 0-2 1-2h9c1 0 1 0.9999 1 2h12.81445s1.18555 0.006 1.18555 1.25586v-1c0-1.2498-1.18555-1.25586-1.18555-1.25586h-12.81445c0-1.0001 0-2-1-2z"/>
 <circle style="opacity:.2" cx="24" cy="24" r="8"/>
 <circle fill="#5db41e" cx="24" cy="23" r="8"/>
 <path style="fill:#ffffff" d="m24 18a5 5 0 0 0 -5 5 5 5 0 0 0 5 5 5 5 0 0 0 5 -5 5 5 0 0 0 -5 -5zm0 1a4 4 0 0 1 4 4 4 4 0 0 1 -4 4 4 4 0 0 1 -4 -4 4 4 0 0 1 4 -4z"/>
 <path style="fill:#ffffff" d="m27 18.5-2 1.25-2 1.25v-5l2 1.25z"/>
 <path style="fill:#ffffff" d="m21 27.5 2 1.25 2 1.25v-5l-2 1.25z"/>
</svg>

<svg xmlns="http://www.w3.org/2000/svg" width="32" height="32" version="1"><path d="M28 26.75V13.257c0-.692-.562-1.326-1.25-1.25H4.25C3 12.006 3 13.204 3 13.204V26.75c0 .693.557 1.25 1.25 1.25h22.5c.693 0 1.25-.557 1.25-1.25z" opacity=".2"/><path d="M3 23.75V7c0-1 0-2 1-2h9c1 0 1 1 1 2h12.814S28 7.006 28 8.256V23.75c0 .693-.558 1.25-1.25 1.25H4.25C3.558 25 3 24.443 3 23.75z" fill="#6c9b9a"/><path d="M28 24.75V11.257c0-.692-.562-1.326-1.25-1.25H4.25C3 10.006 3 11.204 3 11.204V24.75c0 .693.557 1.25 1.25 1.25h22.5c.693 0 1.25-.557 1.25-1.25z" opacity=".2"/><rect width="21" height="10" x="5" y="9" rx="1.167" ry="1.25" fill="#dcdcdc"/><path d="M28 25.75V12.257c0-.692-.562-1.326-1.25-1.25H4.25C3 11.006 3 12.204 3 12.204V25.75c0 .693.557 1.25 1.25 1.25h22.5c.693 0 1.25-.557 1.25-1.25z" fill="#82abaa"/><path d="M4 5C3 5 3 6 3 7v1c0-1 0-2 1-2h9c1 0 1 1 1 2h12.814S28 8.006 28 9.256v-1C28 7.006 26.814 7 26.814 7H14c0-1 0-2-1-2z" opacity=".1" fill="#fff"/><circle cx="24" cy="24" r="8" opacity=".2"/><circle fill="#5db41e" cx="24" cy="23" r="8"/><path d="M24 18a5 5 0 0 0-5 5 5 5 0 0 0 5 5 5 5 0 0 0 5-5 5 5 0 0 0-5-5zm0 1a4 4 0 0 1 4 4 4 4 0 0 1-4 4 4 4 0 0 1-4-4 4 4 0 0 1 4-4z" fill="#fff"/><path d="M27 18.5l-2 1.25L23 21v-5l2 1.25zM21 27.5l2 1.25L25 30v-5l-2 1.25z" fill="#fff"/></svg>
